svgs/light/share-nodes.svg

<svg xmlns="http://www.w3.org/2000/svg" viewBox="0 0 448 512"><!-- Font Awesome Pro 6.0.0-alpha2 by @fontawesome - https://fontawesome.com License - https://fontawesome.com/license (Commercial License) --><path d="M368 320C342.477 320 320.008 332.176 305.359 350.789L156.984 276.602C158.754 269.99 160 263.17 160 256S158.754 242.01 156.984 235.398L305.359 161.211C320.008 179.824 342.477 192 368 192C412.184 192 448 156.184 448 112S412.184 32 368 32S288 67.816 288 112C288 119.17 289.246 125.99 291.016 132.602L142.641 206.789C127.992 188.176 105.523 176 80 176C35.816 176 0 211.816 0 256S35.816 336 80 336C105.523 336 127.992 323.824 142.641 305.211L291.016 379.398C289.246 386.01 288 392.83 288 400C288 444.184 323.816 480 368 480S448 444.184 448 400S412.184 320 368 320ZM368 64C394.467 64 416 85.533 416 112S394.467 160 368 160S320 138.467 320 112S341.533 64 368 64ZM80 304C53.533 304 32 282.467 32 256S53.533 208 80 208S128 229.533 128 256S106.467 304 80 304ZM368 448C341.533 448 320 426.467 320 400S341.533 352 368 352S416 373.533 416 400S394.467 448 368 448Z"/></svg>

<svg xmlns="http://www.w3.org/2000/svg" viewBox="0 0 448 512"><!--! Font Awesome Pro 6.0.0-alpha3 by @fontawesome - https://fontawesome.com License - https://fontawesome.com/license (Commercial License) --><path d="M368 320c-25.52 0-47.99 12.18-62.64 30.79L156.1 276.6C158.8 269.1 160 263.2 160 256S158.8 242 156.1 235.4l148.4-74.19C320 179.8 342.5 192 368 192C412.2 192 448 156.2 448 112S412.2 32 368 32S288 67.82 288 112c0 7.17 1.246 13.99 3.016 20.6L142.6 206.8C127.1 188.2 105.5 176 80 176C35.82 176 0 211.8 0 256s35.82 80 80 80c25.52 0 47.99-12.18 62.64-30.79l148.4 74.19C289.2 386 288 392.8 288 400c0 44.18 35.82 80 80 80s80-35.82 80-80S412.2 320 368 320zM368 64C394.5 64 416 85.53 416 112S394.5 160 368 160S320 138.5 320 112S341.5 64 368 64zM80 304C53.53 304 32 282.5 32 256s21.53-48 48-48S128 229.5 128 256S106.5 304 80 304zM368 448c-26.47 0-48-21.53-48-48s21.53-48 48-48s48 21.53 48 48S394.5 448 368 448z"/></svg>
